public/images/hero/hero-image.svg

<svg width="385" height="650" viewBox="0 0 385 650" fill="none" xmlns="http://www.w3.org/2000/svg">
<path d="M384.421 425.736V513.642H364.681V429.267L361.851 425.736H292.76L289.931 429.267V513.642H270.189V425.736H287.103L289.931 422.219V407.005H364.681V422.206L367.523 425.736H384.421Z" fill="#23272B"/>
<path d="M0.00146484 407.005V513.642H114.231V491.432L114.124 491.345H79.8953V463.315L79.8055 463.243H45.5751V435.213L45.4696 435.126H11.2392V407.005H11.1494H0.00146484Z" fill="#546FEF"/>
<path d="M154.649 498.707V513.642H249.625V495.182H157.186L154.903 492.279V407.005H135.307V495.182H151.876L154.649 498.707Z" fill="#23272B"/>
<path d="M113.516 144.817L62.408 239.754C60.1481 243.985 54.0829 243.985 51.8231 239.754L0.715064 144.817C-1.41961 140.82 1.4764 135.99 6.0075 135.99H108.224C112.755 135.99 115.651 140.82 113.516 144.817Z" fill="#7EDE8F"/>
<path d="M384.421 242.928V224.466H288.571V198.577H371.131V180.342H288.571V154.451H384.421V135.99H270.336V242.928H288.571H384.421Z" fill="#23272B"/>
<path d="M153.741 189.459V157.825L156.444 154.225H228.486L231.188 157.825V186.235L228.767 189.459H153.741ZM153.741 207.694H197.793V222.847L223.006 242.928H237.426V227.892L211.742 207.694H231.188V192.983L233.836 189.459H249.424V154.225H233.553L231.188 151.077V135.99H153.741V151.077L151.376 154.225H135.506V242.928H153.741V207.694Z" fill="#23272B"/>
<path d="M383.707 280.247L332.599 375.189C330.339 379.42 324.274 379.42 322.014 375.189L270.906 280.247C268.771 276.25 271.667 271.42 276.198 271.42H378.414C382.945 271.42 385.841 276.25 383.707 280.247Z" fill="#546FEF"/>
<path d="M135.467 378.362H249.466V359.897H153.702V337.419L156.264 334.008H236.177V315.772H156.237L153.702 312.398V289.882H249.466V271.42H135.465V289.882H135.467V315.81H151.197L153.702 319.146V330.67L151.168 334.045H135.467V359.897H135.465V378.362H135.467Z" fill="#23272B"/>
<path d="M19.0499 289.66H92.2137L95.0364 293.26V356.527L92.2137 360.127H19.0499V289.66ZM95.0377 378.362V363.275L97.508 360.125H114.086V289.66H97.5067L95.0377 286.51V271.42H0.00146484V378.362H19.0499H95.0377Z" fill="#1E1E1E"/>
<path d="M270.191 649.226H384.42L384.422 542.288H360.532V574.656H330.5L330.422 574.74V606.688H300.392L300.299 606.787V638.736H270.269L270.191 638.821V649.226Z" fill="#7EDE8F"/>
<path d="M153.62 563.898L156.153 560.523H228.865L231.31 563.779V627.733L228.865 630.989H156.153L153.62 627.615V563.898ZM231.31 557.03V542.288H153.62V557.149L151.086 560.523H135.384V630.989H151.086L153.62 634.364V649.224H231.31V634.483L233.932 630.989H249.545V560.523H233.932L231.31 557.03Z" fill="#23272B"/>
<path d="M95.1855 630.764H79.7805L77.2046 627.333V608.649L46.9264 560.749H39.1342L36.6005 557.375V542.288H0.00146484V649.226H18.1407V560.749H34.0669L36.6005 564.123V581.356L67.4976 630.764H74.7132L77.2046 634.082V649.226H113.325V542.288H95.1855V630.764Z" fill="#23272B"/>
<path d="M153.659 106.519H249.508V88.4778H153.659V65.9997L156.222 62.5872H236.219V44.3517H156.193L153.659 40.9775V18.4612H249.508V0.001297H135.424V44.3517H151.126L153.659 47.7259V59.2513L151.155 62.5872H135.424V106.519H140.698H153.659Z" fill="#23272B"/>
<path d="M270.191 1.52588e-05H384.422V106.518H360.532V74.5692H330.5L330.422 74.4861V42.5373H300.392L300.299 42.4383V10.4895H270.269L270.191 10.4051V1.52588e-05Z" fill="#7EDE8F"/>
<path d="M95.8506 53.3976H18.2383L18.402 18.2368H95.8506V53.3976ZM0.00146484 0.001297V106.519H18.2383V71.6344H114.086V0.001297H0.00146484Z" fill="#23272B"/>
<path d="M302 475.425H353.705V457H302V475.425Z" fill="#23272B"/>
</svg>

<svg xmlns="http://www.w3.org/2000/svg" fill="none" viewBox="0 0 385 650">
	<path fill="#23272B" d="M384.4 425.7v88h-19.7v-84.4l-2.8-3.6h-69.1l-2.9 3.6v84.3h-19.7v-87.9H287l2.8-3.5V407h74.8v15.2l2.8 3.5h17Z"/>
	<path fill="#546FEF" d="M0 407v106.6h114.2v-22.2H79.8v-28.2H45.5v-28H11.2V407H0Z"/>
	<path fill="#23272B" d="M154.6 498.7v15h95v-18.5h-92.4l-2.3-3V407h-19.6v88.2H152l2.7 3.5Z"/>
	<path fill="#7EDE8F" d="m113.5 144.8-51 95a6 6 0 0 1-10.7 0l-51-95A6 6 0 0 1 6 136h102.2a6 6 0 0 1 5.3 8.8Z"/>
	<path fill="#23272B" d="M384.4 243v-18.5h-95.8v-26H371v-18.2h-82.5v-25.8h95.8V136h-114v107h114ZM153.7 189.5v-31.7l2.7-3.6h72l2.8 3.6v28.4l-2.4 3.3h-75Zm0 18.2h44v15.1L223 243h14.4v-15l-25.7-20.2h19.5V193l2.6-3.5h15.6v-35.3h-15.8l-2.4-3.1V136h-77.5v15l-2.3 3.2h-15.9V243h18.2v-35.2Z"/>
	<path fill="#546FEF" d="m383.7 280.2-51.1 95a6 6 0 0 1-10.6 0l-51-95a6 6 0 0 1 5.2-8.8h102.2a6 6 0 0 1 5.3 8.8Z"/>
	<path fill="#23272B" d="M135.5 378.4h114v-18.5h-95.8v-22.5l2.6-3.4h79.9v-18.2h-80l-2.5-3.4v-22.5h95.8v-18.5h-114V316h15.7l2.5 3.2v11.6l-2.5 3.3h-15.7v44.4Z"/>
	<path fill="#1E1E1E" d="M19 289.7h73.2l2.8 3.6v63.2l-2.8 3.6H19v-70.4Zm76 88.7v-15.1l2.5-3.2h16.6v-70.4H97.5l-2.5-3.2v-15H0v106.9h95Z"/>
	<path fill="#7EDE8F" d="M270.2 649.2h114.2v-107h-23.9v32.5h-30v32H300.2v32h-30l-.1.1v10.4Z"/>
	<path fill="#23272B" d="m153.6 563.9 2.6-3.4h72.7l2.4 3.3v64L229 631h-72.7l-2.6-3.4V564Zm77.7-6.9v-14.7h-77.7V557l-2.5 3.4h-15.7V631H151l2.5 3.4v14.8h77.7v-14.7l2.6-3.5h15.6v-70.5H234l-2.6-3.5ZM95.2 630.8H79.8l-2.6-3.5v-18.7l-30.3-47.9h-7.8l-2.5-3.3v-15.1H0v107h18.1v-88.6h16l2.5 3.4v17.3l30.9 49.4h7.2l2.5 3.3v15.1h36.1v-107H95.2v88.6ZM153.7 106.5h95.8v-18h-95.8V66l2.5-3.4h80V44.4h-80l-2.5-3.4V18.5h95.8V0h-114v44.4H151l2.6 3.3v11.6l-2.5 3.3h-15.8v44h18.3Z"/>
	<path fill="#7EDE8F" d="M270.2 0h114.2v106.5h-23.9v-32h-30v-32H300.2v-32h-30.1V0Z"/>
	<path fill="#23272B" d="M95.9 53.4H18.2l.2-35.2h77.5v35.2ZM0 0v106.5h18.2V71.6h95.9V0H0ZM302 475.4h51.7V457H302v18.4Z"/>
</svg>
